pix_core/i/enrolmentsuspended.svg

<!DOCTYPE svg PUBLIC "-//W3C//DTD SVG 1.1//EN" "http://www.w3.org/Graphics/SVG/1.1/DTD/svg11.dtd" [
	<!ENTITY ns_flows "http://ns.adobe.com/Flows/1.0/">
]><svg xmlns="http://www.w3.org/2000/svg" width="16" height="16" viewBox="0 0 16 16" preserveAspectRatio="xMinYMid meet" overflow="visible"><path d="M8 0c-4.4 0-8 3.6-8 8s3.6 8 8 8 8-3.6 8-8-3.6-8-8-8zm0 14c-3.3 0-6-2.7-6-6s2.7-6 6-6 6 2.7 6 6-2.7 6-6 6zm-1-4c0 .5-.5 1-1 1s-1-.5-1-1v-4c0-.5.5-1 1-1s1 .5 1 1v4zm4 0c0 .5-.5 1-1 1s-1-.5-1-1v-4c0-.5.5-1 1-1s1 .5 1 1v4z" fill="#1F4D87"/></svg>

<?xml version="1.0" encoding="utf-8"?>
<!-- Generator: Adobe Illustrator 15.1.0, SVG Export Plug-In  -->
<!DOCTYPE svg PUBLIC "-//W3C//DTD SVG 1.1//EN" "http://www.w3.org/Graphics/SVG/1.1/DTD/svg11.dtd" [
	<!ENTITY ns_flows "http://ns.adobe.com/Flows/1.0/">
]>
<svg version="1.1"
	 xmlns="http://www.w3.org/2000/svg" xmlns:xlink="http://www.w3.org/1999/xlink" xmlns:a="http://ns.adobe.com/AdobeSVGViewerExtensions/3.0/"
	 x="0px" y="0px" width="16px" height="16px" viewBox="0 0 16 16" style="overflow:visible;enable-background:new 0 0 16 16;"
	 xml:space="preserve" preserveAspectRatio="xMinYMid meet">
<defs>
</defs>
<path style="fill:#1F4D87;" d="M8,0C3.6,0,0,3.6,0,8c0,4.4,3.6,8,8,8c4.4,0,8-3.6,8-8C16,3.6,12.4,0,8,0z M8,14c-3.3,0-6-2.7-6-6
	s2.7-6,6-6s6,2.7,6,6S11.3,14,8,14z M7,10c0,0.5-0.5,1-1,1l0,0c-0.5,0-1-0.5-1-1V6c0-0.5,0.5-1,1-1l0,0c0.5,0,1,0.5,1,1V10z M11,10
	c0,0.5-0.5,1-1,1l0,0c-0.5,0-1-0.5-1-1V6c0-0.5,0.5-1,1-1l0,0c0.5,0,1,0.5,1,1V10z"/>
</svg>
